svg/mccant.svg

<svg width="401" height="307" viewBox="0 0 401 307" fill="none" xmlns="http://www.w3.org/2000/svg">
<path d="M4.14137 224.015C2.66819 236.505 0.915892 248.855 2.86359 261.376C3.85195 267.73 5.27092 273.961 6.89137 280.182C9.36548 289.679 13.1272 302.385 24.2525 304.682C33.7246 306.637 40.9484 301.586 43.4469 292.321C46.1287 282.376 42.4839 270.894 40.1969 261.237C39.9578 260.228 38.9577 251.255 38.2525 256.015C37.2703 262.645 39.9715 269.533 42.7525 275.404C45.0409 280.235 49.0586 287.022 55.3914 286.404C60.6338 285.893 63.6938 280.396 65.1136 275.96C67.8878 267.29 65.6358 256.626 62.7525 248.348C62.0847 246.431 60.4346 242.905 61.4191 247.265C64.3445 260.221 73.3666 275.058 87.6414 276.626C92.7434 277.187 97.1276 277.257 100.78 273.015C104.266 268.968 104.081 262.257 102.614 257.487C99.161 246.266 94.2183 234.521 88.0303 224.515C85.1767 219.901 81.5381 215.431 77.9469 211.376C75.3861 208.485 72.7295 206.105 68.9747 205.015C62.0733 203.012 55.8276 207.876 52.1969 213.487C49.5057 217.647 47.3616 221.819 46.2525 226.682C45.74 228.929 45.5897 231.239 45.2525 233.515C45.1411 234.267 45.4813 236.473 45.1414 235.793C43.7799 233.07 43.537 229.806 42.1414 227.015C40.2951 223.323 38.3256 220.992 35.1414 218.515C28.5755 213.408 18.1045 213.866 12.1414 219.515C10.2752 221.283 8.75592 223.401 6.91914 225.237C3.74339 228.413 3.64137 231.645 3.64137 236.015" stroke="#4D4D4D" stroke-width="3" stroke-linecap="round"/>
<path d="M124.641 231.515C114.462 233.311 111.514 245.175 111.641 254.237C111.778 263.903 126.128 264.161 132.641 260.904C135.556 259.446 145.074 251.885 141.141 247.515C137.354 243.307 131.682 247.949 127.752 249.404C124.464 250.622 122.141 249.906 122.141 246.015C122.141 244.371 122.494 242.95 124.141 242.126C125.425 241.485 127.153 242.094 128.03 240.515C129.17 238.463 129.603 236.042 128.53 234.015C127.491 232.053 124.629 231.031 123.141 233.015" stroke="#4D4D4D" stroke-width="3" stroke-linecap="round"/>
<path d="M154.141 167.015C146.093 167.015 138.452 167.249 132.669 173.793C123.845 183.778 124.523 196.814 128.141 208.876C132.723 224.15 146.242 242.088 163.752 242.515C171.737 242.71 178.044 242.112 183.891 236.265C187.705 232.452 189.641 227.888 189.641 222.515C189.641 209.57 171.349 223.779 166.891 225.265C160.792 227.298 154.89 224.718 151.252 219.626C147.825 214.828 144.641 207.458 144.641 201.515C144.641 196.705 144.823 190.46 149.614 187.765C152.202 186.309 155.011 186.515 157.891 186.515C163.283 186.515 164.697 176.915 162.53 173.015C161.746 171.604 159.182 170.778 158.03 169.626C156.929 168.525 154.225 167.015 152.641 167.015" stroke="#4D4D4D" stroke-width="3" stroke-linecap="round"/>
<path d="M201.141 229.515C201.141 221.368 195.697 213.11 193.141 205.515C191.664 201.123 189.84 196.865 188.252 192.515C186.93 188.892 186.285 185.066 184.641 181.543C182.528 177.015 181.367 172.165 180.641 167.265C180.147 163.926 178.77 159.221 179.752 155.904C180.924 151.949 185.046 151.947 188.641 152.015C194.892 152.133 203.754 157.912 208.114 162.015C214.753 168.264 221.826 174.804 226.752 182.515C230.443 188.292 236.494 193.27 238.391 200.015C239.815 205.076 240.141 209.748 240.141 214.987C240.141 220.445 233.574 219.159 230.141 218.015C224.251 216.052 219.966 213.957 216.53 208.626C216.242 208.179 213.961 205.136 213.252 205.237C213.217 205.242 217.267 211.072 217.614 211.487C220.516 214.97 221.971 221.857 219.864 226.071C217.449 230.899 214.815 232.515 209.53 232.515C206.162 232.515 204.636 231.258 202.641 228.765C201.819 227.737 200.979 225.124 199.641 226.015" stroke="#4D4D4D" stroke-width="3" stroke-linecap="round"/>
<path d="M199.141 176.515C199.905 181.097 202.274 187.692 205.141 191.515" stroke="#4D4D4D" stroke-width="3" stroke-linecap="round"/>
<path d="M222.141 142.015C223.142 148.817 227.322 154.333 230.614 160.237C234.159 166.598 236.8 173.646 241.141 179.515C245.264 185.089 248.98 190.907 253.03 196.515C255.731 200.254 259.476 203.269 264.141 204.404C270.632 205.983 272.141 197.574 272.141 192.904C272.141 187.372 268.017 179.939 264.641 175.626C262.661 173.096 261.105 170.202 258.669 168.071C257.279 166.854 258.76 168.647 259.169 169.015C260.807 170.489 262.726 171.781 264.475 173.126C268.059 175.883 271.515 178.603 275.614 180.515C278.597 181.907 281.946 182.64 285.03 183.904C288.076 185.152 291.194 184.683 294.336 185.265C297.29 185.812 299.891 185.705 302.141 183.515C308.172 177.647 303.618 169.988 300.141 163.904C294.829 154.607 287.351 147.171 280.53 139.015C276.408 134.086 271.017 125.605 264.364 124.126C261.163 123.415 258.955 126.679 257.947 129.237C255.774 134.753 258.101 140.062 260.752 144.904C263.408 149.753 265.392 155.16 269.614 158.96C273.126 162.121 267.771 158.534 266.641 157.626C258.95 151.446 251.728 144.597 242.141 141.515C238.915 140.478 235.064 140.627 231.697 140.015C229.801 139.67 228.447 139.265 226.53 139.904C224.213 140.677 222.141 142.539 222.141 145.015" stroke="#4D4D4D" stroke-width="3" stroke-linecap="round"/>
<path d="M275.641 107.015C275.641 108.461 275.119 120.819 278.641 121.015C283.684 121.295 285.141 116.26 285.141 112.126C285.141 110.098 286.433 101.515 283.141 101.515C277.121 101.515 276.172 107.423 274.641 112.015" stroke="#4D4D4D" stroke-width="3" stroke-linecap="round"/>
<path d="M344.641 81.5152C336.353 84.7386 328.331 88.6474 320.141 92.1263C317.353 93.3107 314.286 94.4886 311.669 96.0152C310.201 96.8716 308.643 96.8253 307.141 97.5152C305.108 98.4494 302.348 99.0781 300.641 100.515C299.657 101.344 297.362 102.073 296.752 103.015C295.667 104.692 294.017 105.339 293.252 107.404C292.555 109.287 291.641 110.405 291.641 112.571C291.641 116.662 292.898 116.978 296.641 117.626C299.805 118.174 303.537 118.475 306.641 117.515C309.951 116.492 313.257 114.819 316.252 113.126C318.773 111.702 321.583 111.146 324.03 109.515C324.776 109.018 325.805 108.537 326.336 107.793C326.54 107.507 325.677 107.881 325.641 108.515C325.542 110.302 325.904 111.885 326.252 113.626C327.589 120.309 329.15 127.536 331.641 133.904C333.8 139.42 335.283 145.455 338.641 150.404C341.218 154.201 344.872 156.188 349.53 156.015C352.205 155.916 353.246 151.392 353.53 149.404C354.217 144.597 353.329 139.829 351.252 135.515C347.528 127.779 346.204 119.183 343.252 111.237C342.491 109.188 340.751 107.778 340.03 105.904C339.153 103.624 338.896 104.015 341.141 104.015C348.138 104.015 359.42 97.4841 359.641 89.5152C359.769 84.9089 359.1 80.52 354.252 78.9041C352.702 78.3871 350.267 78.1747 348.641 78.6263C347.191 79.0292 346.043 80.1922 344.641 80.7374C342.932 81.4021 340.921 81.6044 339.141 82.0152" stroke="#4D4D4D" stroke-width="3" stroke-linecap="round"/>
<path d="M251.641 104.015C261.26 106.286 271.131 105.782 280.641 108.876C286.452 110.766 292.095 112.883 298.225 113.46C302.408 113.853 306.558 113.945 310.752 114.015C317.879 114.134 324.49 117.084 331.447 118.265C338.27 119.424 344.845 120.001 351.475 122.126C361.941 125.482 373.477 126.392 383.419 131.293C386.743 132.931 390.711 135.431 394.364 136.015C395.846 136.252 402.107 138.015 397.641 138.015" stroke="#15CE79" stroke-width="3" stroke-linecap="round"/>
<path d="M360.641 57.0151C355.335 65.4765 353.121 74.2021 350.364 83.7096C347.595 93.2575 344.857 102.717 341.641 112.126C339.238 119.157 336.656 126.806 335.669 134.21C335.102 138.461 333.956 142.956 332.53 147.015C330.149 153.792 328.408 160.715 326.141 167.515C325.694 168.858 322.977 177.683 322.641 177.515" stroke="#15CE79" stroke-width="3" stroke-linecap="round"/>
<path d="M284.641 75.5151C280.68 65.1874 275.251 55.4184 270.197 45.5985C268.278 41.8693 266.122 37.8867 265.141 33.7929C264.604 31.5488 263.828 26.8079 264.947 24.5707C265.936 22.5922 269.12 21.9658 271.03 21.6263C277.435 20.4876 283.489 25.9965 289.03 28.5151C292.474 30.0804 296.326 32.9817 299.141 35.5151C300.432 36.6768 302.042 37.1875 303.391 38.2374C304.487 39.0897 303.235 37.1458 303.141 36.9596C302.107 34.8912 301.322 32.6836 300.53 30.5151C298.152 23.9957 294.439 14.122 297.141 7.12625C298.149 4.5174 299.626 2.31704 302.641 2.04292C306.4 1.70124 308.156 3.43401 310.641 6.01514C314.285 9.79922 315.278 16.0673 316.391 21.0151C317.694 26.8027 320.029 32.2335 321.391 37.9874C322.782 43.857 325.436 49.6266 324.614 55.7929C323.586 63.4981 308.862 56.3655 305.391 55.2651C298.148 52.9684 290.953 49.5759 285.169 44.5151C283.593 43.1359 282.395 41.3944 284.364 44.2374C286.796 47.7515 289.226 51.2545 291.364 54.9596C294.038 59.5953 296.515 66.1266 297.114 71.5151C297.593 75.8318 297.252 77.797 293.141 79.2651C290.059 80.366 288.897 80.9348 285.891 79.2651C283.661 78.0258 283.141 75.9278 283.141 73.5151" stroke="#4D4D4D" stroke-width="3" stroke-linecap="round"/>
</svg>

<svg xmlns="http://www.w3.org/2000/svg" width="401" height="307" fill="none"><path stroke="#4D4D4D" stroke-linecap="round" stroke-width="3" d="M4.141 224.015c-1.473 12.49-3.225 24.84-1.277 37.361.988 6.354 2.407 12.585 4.027 18.806 2.474 9.497 6.236 22.203 17.362 24.5 9.472 1.955 16.695-3.096 19.194-12.361 2.682-9.945-.963-21.427-3.25-31.084-.24-1.009-1.24-9.982-1.945-5.222-.982 6.63 1.72 13.518 4.5 19.389 2.289 4.831 6.307 11.618 12.64 11 5.242-.511 8.302-6.008 9.722-10.444 2.774-8.67.522-19.334-2.362-27.612-.667-1.917-2.317-5.443-1.333-1.083 2.925 12.956 11.948 27.793 26.222 29.361 5.102.561 9.487.631 13.139-3.611 3.486-4.047 3.301-10.758 1.834-15.528-3.453-11.221-8.396-22.966-14.584-32.972-2.853-4.614-6.492-9.084-10.083-13.139-2.56-2.891-5.218-5.271-8.972-6.361-6.902-2.003-13.147 2.861-16.778 8.472-2.691 4.16-4.835 8.332-5.945 13.195-.512 2.247-.662 4.557-1 6.833-.11.752.23 2.958-.11 2.278-1.362-2.723-1.605-5.987-3-8.778-1.847-3.692-3.816-6.023-7-8.5-6.567-5.107-17.038-4.649-23 1-1.867 1.768-3.386 3.886-5.223 5.722-3.176 3.176-3.278 6.408-3.278 10.778m121-4.5c-10.179 1.796-13.127 13.66-13 22.722.137 9.666 14.487 9.924 21 6.667 2.915-1.458 12.433-9.019 8.5-13.389-3.787-4.208-9.459.434-13.389 1.889-3.288 1.218-5.611.502-5.611-3.389 0-1.644.353-3.065 2-3.889 1.284-.641 3.012-.032 3.889-1.611 1.14-2.052 1.573-4.473.5-6.5-1.039-1.962-3.901-2.984-5.389-1m31-66c-8.048 0-15.689.234-21.472 6.778-8.824 9.985-8.146 23.021-4.528 35.083 4.582 15.274 18.101 33.212 35.611 33.639 7.985.195 14.292-.403 20.139-6.25 3.814-3.813 5.75-8.377 5.75-13.75 0-12.945-18.292 1.264-22.75 2.75-6.099 2.033-12.001-.547-15.639-5.639-3.427-4.798-6.611-12.168-6.611-18.111 0-4.81.182-11.055 4.973-13.75 2.588-1.456 5.397-1.25 8.277-1.25 5.392 0 6.806-9.6 4.639-13.5-.784-1.411-3.348-2.237-4.5-3.389-1.101-1.101-3.805-2.611-5.389-2.611m48.5 62.5c0-8.147-5.444-16.405-8-24-1.477-4.392-3.301-8.65-4.889-13-1.322-3.623-1.967-7.449-3.611-10.972-2.113-4.528-3.274-9.378-4-14.278-.494-3.339-1.871-8.044-.889-11.361 1.172-3.955 5.294-3.957 8.889-3.889 6.251.118 15.113 5.897 19.473 10 6.639 6.249 13.712 12.789 18.638 20.5 3.691 5.777 9.742 10.755 11.639 17.5 1.424 5.061 1.75 9.733 1.75 14.972 0 5.458-6.567 4.172-10 3.028-5.89-1.963-10.175-4.058-13.611-9.389-.288-.447-2.569-3.49-3.278-3.389-.035.005 4.015 5.835 4.362 6.25 2.902 3.483 4.357 10.37 2.25 14.584-2.415 4.828-5.049 6.444-10.334 6.444-3.368 0-4.894-1.257-6.889-3.75-.822-1.028-1.662-3.641-3-2.75"/><path stroke="#4D4D4D" stroke-linecap="round" stroke-width="3" d="M199.141 176.515c.764 4.582 3.133 11.177 6 15m17-49.5c1.001 6.802 5.181 12.318 8.473 18.222 3.545 6.361 6.186 13.409 10.527 19.278 4.123 5.574 7.839 11.392 11.889 17 2.701 3.739 6.446 6.754 11.111 7.889 6.491 1.579 8-6.83 8-11.5 0-5.532-4.124-12.965-7.5-17.278-1.98-2.53-3.536-5.424-5.972-7.555-1.39-1.217.091.576.5.944 1.638 1.474 3.557 2.766 5.306 4.111 3.584 2.757 7.04 5.477 11.139 7.389 2.983 1.392 6.332 2.125 9.416 3.389 3.046 1.248 6.164.779 9.306 1.361 2.954.547 5.555.44 7.805-1.75 6.031-5.868 1.477-13.527-2-19.611-5.312-9.297-12.79-16.733-19.611-24.889-4.122-4.929-9.513-13.41-16.166-14.889-3.201-.711-5.409 2.553-6.417 5.111-2.173 5.516.154 10.825 2.805 15.667 2.656 4.849 4.64 10.256 8.862 14.056 3.512 3.161-1.843-.426-2.973-1.334-7.691-6.18-14.913-13.029-24.5-16.111-3.226-1.037-7.077-.888-10.444-1.5-1.896-.345-3.25-.75-5.167-.111-2.317.773-4.389 2.635-4.389 5.111m53.5-38c0 1.446-.522 13.804 3 14 5.043.28 6.5-4.755 6.5-8.889 0-2.028 1.292-10.611-2-10.611-6.02 0-6.969 5.908-8.5 10.5m70-30.5c-8.288 3.224-16.31 7.132-24.5 10.611-2.788 1.185-5.855 2.363-8.472 3.89-1.468.856-3.026.81-4.528 1.5-2.033.933-4.793 1.562-6.5 2.999-.984.829-3.279 1.558-3.889 2.5-1.085 1.677-2.735 2.324-3.5 4.389-.697 1.883-1.611 3.001-1.611 5.167 0 4.091 1.257 4.407 5 5.055 3.164.548 6.896.849 10-.111 3.31-1.023 6.616-2.696 9.611-4.389 2.521-1.424 5.331-1.98 7.778-3.611.746-.497 1.775-.978 2.306-1.722.204-.286-.659.088-.695.722-.099 1.787.263 3.37.611 5.111 1.337 6.683 2.898 13.91 5.389 20.278 2.159 5.516 3.642 11.551 7 16.5 2.577 3.797 6.231 5.784 10.889 5.611 2.675-.099 3.716-4.623 4-6.611.687-4.807-.201-9.575-2.278-13.889-3.724-7.736-5.048-16.332-8-24.278-.761-2.049-2.501-3.459-3.222-5.333-.877-2.28-1.134-1.889 1.111-1.889 6.997 0 18.279-6.53 18.5-14.5.128-4.606-.541-8.995-5.389-10.61-1.55-.518-3.985-.73-5.611-.279-1.45.403-2.598 1.566-4 2.111-1.709.665-3.72.867-5.5 1.278"/><path stroke="#15CE79" stroke-linecap="round" stroke-width="3" d="M251.641 104.015c9.619 2.271 19.49 1.767 29 4.861 5.811 1.89 11.454 4.007 17.584 4.584 4.183.393 8.333.485 12.527.555 7.127.119 13.738 3.069 20.695 4.25 6.823 1.159 13.398 1.736 20.028 3.861 10.466 3.356 22.002 4.266 31.944 9.167 3.324 1.638 7.292 4.138 10.945 4.722 1.482.237 7.743 2 3.277 2"/><path stroke="#15CE79" stroke-linecap="round" stroke-width="3" d="M360.641 57.015c-5.306 8.462-7.52 17.187-10.277 26.695-2.769 9.547-5.507 19.007-8.723 28.416-2.403 7.031-4.985 14.68-5.972 22.084-.567 4.251-1.713 8.746-3.139 12.805-2.381 6.777-4.122 13.7-6.389 20.5-.447 1.343-3.164 10.168-3.5 10"/><path stroke="#4D4D4D" stroke-linecap="round" stroke-width="3" d="M284.641 75.515c-3.961-10.328-9.39-20.097-14.444-29.916-1.919-3.73-4.075-7.712-5.056-11.806-.537-2.244-1.313-6.985-.194-9.222.989-1.979 4.173-2.605 6.083-2.945 6.405-1.138 12.459 4.37 18 6.89 3.444 1.564 7.296 4.466 10.111 7 1.291 1.16 2.901 1.672 4.25 2.721 1.096.853-.156-1.091-.25-1.277-1.034-2.069-1.819-4.276-2.611-6.445-2.378-6.52-6.091-16.393-3.389-23.389 1.008-2.609 2.485-4.809 5.5-5.083 3.759-.342 5.515 1.391 8 3.972 3.644 3.784 4.637 10.052 5.75 15 1.303 5.788 3.638 11.218 5 16.972 1.391 5.87 4.045 11.64 3.223 17.806-1.028 7.705-15.752.572-19.223-.528-7.243-2.297-14.438-5.69-20.222-10.75-1.576-1.38-2.774-3.12-.805-.278 2.432 3.514 4.862 7.017 7 10.723 2.674 4.635 5.151 11.167 5.75 16.555.479 4.317.138 6.282-3.973 7.75-3.082 1.101-4.244 1.67-7.25 0-2.23-1.24-2.75-3.337-2.75-5.75"/></svg>
